file/mercy-for-animals.svg

<svg clip-rule="evenodd" fill-rule="evenodd" stroke-linejoin="round" stroke-miterlimit="1.41421" viewBox="0 0 560 400" xmlns="http://www.w3.org/2000/svg"><g fill-rule="nonzero" transform="matrix(4.5225 0 0 4.5225 42.2306 154.774)"><path d="m3.846 19.82h6.966c-3.412-1.943-5.713-5.613-5.713-9.82 0-4.208 2.301-7.878 5.713-9.821h-6.966c-.932 1.365-3.796 4.743-3.796 9.821s2.864 8.455 3.796 9.82m25.091-19.64h-6.965c3.412 1.944 5.712 5.614 5.712 9.821 0 4.208-2.3 7.878-5.712 9.821h6.965c.932-1.365 3.796-4.744 3.796-9.821 0-5.079-2.864-8.455-3.796-9.821" fill="#fa9438"/><path d="m9.518 10c0 3.796 3.078 6.874 6.874 6.874s6.874-3.078 6.874-6.874-3.078-6.874-6.874-6.874-6.874 3.078-6.874 6.874" fill="#0566f2"/><path d="m93.322 7.838c-2.291 0-3.829-1.796-3.829-3.883 0-2.086 1.56-3.905 3.851-3.905s3.828 1.797 3.828 3.883c0 2.087-1.559 3.905-3.85 3.905m0-7.002c-1.721 0-2.946 1.376-2.946 3.097s1.247 3.119 2.968 3.119 2.946-1.376 2.946-3.097-1.247-3.119-2.968-3.119m-4.849.129h-4.56v2.688h4.076v.775h-4.076v3.281h-.85v-7.529h5.409zm-12.788 6.744h-.86v-2.979l-3.13-4.55h1.033l2.538 3.764 2.559-3.764h.99l-3.13 4.539zm-7.852.129c-2.173 0-3.775-1.71-3.775-3.883 0-2.152 1.592-3.905 3.808-3.905 1.365 0 2.182.484 2.936 1.194l-.581.625c-.634-.603-1.343-1.033-2.365-1.033-1.667 0-2.916 1.343-2.916 3.097 0 1.753 1.258 3.119 2.916 3.119 1.032 0 1.71-.398 2.43-1.086l.559.548c-.786.797-1.647 1.324-3.012 1.324m36.226-.129-2.19-2.927h-2.149v2.927h-.849v-7.529h3.239c1.656 0 2.721.892 2.721 2.248 0 1.258-.861 1.989-2.044 2.204l2.313 3.077zm-2.02-6.744h-2.319v3.055h2.313c1.129 0 1.937-.581 1.937-1.56 0-.936-.71-1.495-1.926-1.495m-40.086 6.744-2.184-2.927h-2.151v2.927h-.85v-7.529h3.238c1.656 0 2.721.892 2.721 2.248 0 1.258-.86 1.989-2.044 2.204l2.313 3.077zm-2.012-6.744h-2.323v3.055h2.313c1.129 0 1.936-.581 1.936-1.56 0-.936-.709-1.495-1.926-1.495m-4.925-.011h-4.593v2.57h3.842v.775h-3.842v2.635h4.647v.775h-5.497v-7.529h5.442zm-11.371 4.689h-.044l-2.742-4.022v6.088h-.83v-7.53h.861l2.744 4.109 2.743-4.109h.86v7.53h-.85v-6.099zm43.781 10.002c1.687.368 2.466.984 2.466 2.153 0 1.308-1.082 2.152-2.586 2.152-1.199 0-2.183-.4-3.093-1.212l.531-.627c.79.714 1.546 1.071 2.595 1.071 1.017 0 1.687-.53 1.687-1.297 0-.714-.377-1.115-1.968-1.45-1.741-.378-2.542-.942-2.542-2.196 0-1.21 1.049-2.076 2.488-2.076 1.103 0 1.893.313 2.661.929l-.498.66c-.703-.573-1.406-.821-2.185-.821-.984 0-1.611.54-1.611 1.232 0 .725.389 1.125 2.055 1.482m-8.966-3.353h.85v6.744h3.723v.784h-4.573zm-14.175 5.464h-.043l-2.742-4.023v6.089h-.829v-7.53h.861l2.743 4.108 2.742-4.108h.861v7.53h-.849v-6.1zm-6.839 2.065h.849v-7.529h-.849zm-3.205-7.529h.828v7.529h-.678l-4.861-6.175v6.172h-.828v-7.528h.795l4.743 6.034zm22.733 7.529h-.914l-.859-1.938h-4.096l-.87 1.937h-.87l3.406-7.529h.796zm-3.815-6.539-1.721 3.838h3.431zm-25.944 6.538h-.914l-.859-1.937h-4.097l-.87 1.937h-.869l3.406-7.529h.795zm-3.816-6.539-1.72 3.838h3.431z"/></g></svg>

<?xml version="1.0" encoding="UTF-8" standalone="no"?>
<!DOCTYPE svg PUBLIC "-//W3C//DTD SVG 1.1//EN" "http://www.w3.org/Graphics/SVG/1.1/DTD/svg11.dtd">
<svg width="100%" height="100%" viewBox="0 0 560 400" version="1.1" xmlns="http://www.w3.org/2000/svg" xmlns:xlink="http://www.w3.org/1999/xlink" xml:space="preserve" xmlns:serif="http://www.serif.com/" style="fill-rule:evenodd;clip-rule:evenodd;stroke-linejoin:round;stroke-miterlimit:1.41421;">
    <g transform="matrix(4.5225,0,0,4.5225,42.2306,154.774)">
        <path id="path68" d="M3.846,19.82L10.812,19.82C7.4,17.877 5.099,14.207 5.099,10C5.099,5.792 7.4,2.122 10.812,0.179L3.846,0.179C2.914,1.544 0.05,4.922 0.05,10C0.05,15.078 2.914,18.455 3.846,19.82M28.937,0.18L21.972,0.18C25.384,2.124 27.684,5.794 27.684,10.001C27.684,14.209 25.384,17.879 21.972,19.822L28.937,19.822C29.869,18.457 32.733,15.078 32.733,10.001C32.733,4.922 29.869,1.546 28.937,0.18" style="fill:rgb(250,148,56);fill-rule:nonzero;"/>
        <path id="path72" d="M9.518,10C9.518,13.796 12.596,16.874 16.392,16.874C20.188,16.874 23.266,13.796 23.266,10C23.266,6.204 20.188,3.126 16.392,3.126C12.596,3.126 9.518,6.204 9.518,10" style="fill:rgb(5,102,242);fill-rule:nonzero;"/>
        <path id="path154" d="M93.322,7.838C91.031,7.838 89.493,6.042 89.493,3.955C89.493,1.869 91.053,0.05 93.344,0.05C95.635,0.05 97.172,1.847 97.172,3.933C97.172,6.02 95.613,7.838 93.322,7.838M93.322,0.836C91.601,0.836 90.376,2.212 90.376,3.933C90.376,5.654 91.623,7.052 93.344,7.052C95.065,7.052 96.29,5.676 96.29,3.955C96.29,2.234 95.043,0.836 93.322,0.836M88.473,0.965L83.913,0.965L83.913,3.653L87.989,3.653L87.989,4.428L83.913,4.428L83.913,7.709L83.063,7.709L83.063,0.18L88.472,0.18L88.473,0.965ZM75.685,7.709L74.825,7.709L74.825,4.73L71.695,0.18L72.728,0.18L75.266,3.944L77.825,0.18L78.815,0.18L75.685,4.719L75.685,7.709ZM67.833,7.838C65.66,7.838 64.058,6.128 64.058,3.955C64.058,1.803 65.65,0.05 67.866,0.05C69.231,0.05 70.048,0.534 70.802,1.244L70.221,1.869C69.587,1.266 68.878,0.836 67.856,0.836C66.189,0.836 64.94,2.179 64.94,3.933C64.94,5.686 66.198,7.052 67.856,7.052C68.888,7.052 69.566,6.654 70.286,5.966L70.845,6.514C70.059,7.311 69.198,7.838 67.833,7.838M104.059,7.709L101.869,4.782L99.72,4.782L99.72,7.709L98.871,7.709L98.871,0.18L102.11,0.18C103.766,0.18 104.831,1.072 104.831,2.428C104.831,3.686 103.97,4.417 102.787,4.632L105.1,7.709L104.059,7.709ZM102.039,0.965L99.72,0.965L99.72,4.02L102.033,4.02C103.162,4.02 103.97,3.439 103.97,2.46C103.97,1.524 103.26,0.965 102.044,0.965M61.958,7.709L59.774,4.782L57.623,4.782L57.623,7.709L56.773,7.709L56.773,0.18L60.011,0.18C61.667,0.18 62.732,1.072 62.732,2.428C62.732,3.686 61.872,4.417 60.688,4.632L63.001,7.709L61.958,7.709ZM59.946,0.965L57.623,0.965L57.623,4.02L59.936,4.02C61.065,4.02 61.872,3.439 61.872,2.46C61.872,1.524 61.163,0.965 59.946,0.965M55.021,0.954L50.428,0.954L50.428,3.524L54.27,3.524L54.27,4.299L50.428,4.299L50.428,6.934L55.075,6.934L55.075,7.709L49.578,7.709L49.578,0.18L55.02,0.18L55.021,0.954ZM43.65,5.643L43.606,5.643L40.864,1.621L40.864,7.709L40.034,7.709L40.034,0.179L40.895,0.179L43.639,4.288L46.382,0.179L47.242,0.179L47.242,7.709L46.392,7.709L46.392,1.61L43.65,5.643ZM87.431,15.645C89.118,16.013 89.897,16.629 89.897,17.798C89.897,19.106 88.815,19.95 87.311,19.95C86.112,19.95 85.128,19.55 84.218,18.738L84.749,18.111C85.539,18.825 86.295,19.182 87.344,19.182C88.361,19.182 89.031,18.652 89.031,17.885C89.031,17.171 88.654,16.77 87.063,16.435C85.322,16.057 84.521,15.493 84.521,14.239C84.521,13.029 85.57,12.163 87.009,12.163C88.112,12.163 88.902,12.476 89.67,13.092L89.172,13.752C88.469,13.179 87.766,12.931 86.987,12.931C86.003,12.931 85.376,13.471 85.376,14.163C85.376,14.888 85.765,15.288 87.431,15.645M78.465,12.292L79.315,12.292L79.315,19.036L83.038,19.036L83.038,19.82L78.465,19.82L78.465,12.292ZM64.29,17.756L64.247,17.756L61.505,13.733L61.505,19.822L60.676,19.822L60.676,12.292L61.537,12.292L64.28,16.4L67.022,12.292L67.883,12.292L67.883,19.822L67.034,19.822L67.034,13.722L64.29,17.756ZM57.451,19.821L58.3,19.821L58.3,12.292L57.451,12.292L57.451,19.821ZM54.246,12.292L55.074,12.292L55.074,19.821L54.396,19.821L49.535,13.646L49.535,19.818L48.707,19.818L48.707,12.29L49.502,12.29L54.245,18.324L54.246,12.292ZM76.979,19.821L76.065,19.821L75.206,17.883L71.11,17.883L70.24,19.82L69.37,19.82L72.776,12.291L73.572,12.291L76.979,19.821ZM73.164,13.282L71.443,17.12L74.874,17.12L73.164,13.282ZM47.22,19.82L46.306,19.82L45.447,17.883L41.35,17.883L40.48,19.82L39.611,19.82L43.017,12.291L43.812,12.291L47.22,19.82ZM43.404,13.281L41.684,17.119L45.115,17.119L43.404,13.281Z" style="fill-rule:nonzero;"/>
    </g>
</svg>
